apps/scalable/xoscope.svg

<?xml version="1.0" standalone="no"?><!-- Generator: Gravit.io --><svg xmlns="http://www.w3.org/2000/svg" xmlns:xlink="http://www.w3.org/1999/xlink" style="isolation:isolate" viewBox="0 0 256 256" width="256" height="256"><defs><filter id="ee7jOyWc8EupjNjfcOduGeaFPNZIji4B" x="-200%" y="-200%" width="400%" height="400%" filterUnits="objectBoundingBox" color-interpolation-filters="sRGB"><feGaussianBlur xmlns="http://www.w3.org/2000/svg" in="SourceGraphic" stdDeviation="4.294"/><feOffset xmlns="http://www.w3.org/2000/svg" dx="0" dy="4" result="pf_100_offsetBlur"/><feFlood xmlns="http://www.w3.org/2000/svg" flood-color="#000000" flood-opacity="0.4"/><feComposite xmlns="http://www.w3.org/2000/svg" in2="pf_100_offsetBlur" operator="in" result="pf_100_dropShadow"/><feBlend xmlns="http://www.w3.org/2000/svg" in="SourceGraphic" in2="pf_100_dropShadow" mode="normal"/></filter></defs><g filter="url(#ee7jOyWc8EupjNjfcOduGeaFPNZIji4B)"><path d=" M 165.689 11.95 C 239.745 11.95 250.328 22.507 250.328 96.494 L 250.328 155.745 C 250.328 229.731 239.745 240.288 165.689 240.288 L 90.319 240.288 C 16.264 240.288 5.68 229.731 5.68 155.745 L 5.68 96.494 C 5.68 22.507 16.264 11.95 90.319 11.95 L 165.689 11.95 L 165.689 11.95 Z " id="Path" fill="rgb(77,77,77)"/></g><g opacity="0.2"><path d=" M 5.676 131.225 L 5.676 155.893 C 5.676 165.141 5.841 173.398 6.275 180.768 C 6.492 184.452 6.776 187.914 7.141 191.168 C 7.505 194.422 7.949 197.466 8.486 200.314 C 9.024 203.163 9.654 205.816 10.391 208.285 C 11.127 210.754 11.969 213.041 12.93 215.156 C 13.846473 217.19389 14.934383 219.150255 16.182 221.004 C 17.369999 222.764004 18.723848 224.406169 20.225 225.908 C 21.729107 227.40725 23.373272 228.759081 25.135 229.945 C 26.991294 231.19131 28.949986 232.277874 30.99 233.193 C 33.108 234.153 35.397 234.993 37.869 235.728 C 40.341 236.464 42.996 237.094 45.848 237.631 C 48.699 238.167 51.747 238.611 55.004 238.975 C 58.261 239.338 61.728 239.621 65.416 239.838 C 72.793 240.271 81.057 240.436 90.314 240.436 L 165.686 240.436 C 174.943 240.436 183.207 240.271 190.584 239.838 C 194.272 239.621 197.739 239.338 200.996 238.975 C 204.253 238.611 207.301 238.167 210.152 237.631 C 213.004 237.094 215.659 236.464 218.131 235.728 C 220.603 234.993 222.892 234.153 225.01 233.193 C 227.050014 232.277874 229.008706 231.19131 230.865 229.945 C 232.626728 228.759081 234.270893 227.40725 235.775 225.908 C 237.276152 224.406169 238.630001 222.764004 239.818 221.004 C 241.065617 219.150255 242.153527 217.19389 243.07 215.156 C 244.031 213.041 244.873 210.754 245.609 208.285 C 246.346 205.816 246.976 203.163 247.514 200.314 C 248.051 197.466 248.495 194.422 248.859 191.168 C 249.224 187.914 249.508 184.452 249.725 180.768 C 250.159 173.398 250.324 165.141 250.324 155.893 L 250.324 131.227 L 187.145 131.227 C 186.942254 131.224777 186.739851 131.209747 186.539 131.182 C 186.276924 131.142711 186.01935 131.077731 185.77 130.988 C 185.519784 130.900014 185.279472 130.786058 185.053 130.648 C 184.826294 130.512907 184.614166 130.354732 184.42 130.176 C 184.322689 130.087022 184.230223 129.992887 184.143 129.894 C 183.879055 129.601237 183.662141 129.269287 183.5 128.91 C 183.445832 128.791413 183.397442 128.670271 183.355 128.547 C 183.2735 128.298323 183.215578 128.042529 183.182 127.783 L 182.629 123.344 L 177.467 146.084 C 177.415269 146.322564 177.339896 146.555381 177.242 146.779 C 177.140304 147.020831 177.012549 147.250857 176.861 147.465 C 176.711861 147.681818 176.54061 147.882561 176.35 148.064 C 176.062524 148.336575 175.736746 148.565664 175.383 148.744 C 173.919317 149.476451 172.158267 149.252913 170.924 148.178 C 170.524576 147.833071 170.201379 147.408726 169.975 146.932 C 169.918278 146.814099 169.867873 146.693261 169.824 146.57 C 169.734194 146.324305 169.670183 146.069937 169.633 145.811 L 161.613 89.553 L 154.426 120.535 C 154.38841 120.686385 154.340634 120.835056 154.283 120.98 C 153.796296 122.235475 152.703 123.156106 151.383 123.422 C 151.253 123.448 151.122 123.469 150.99 123.482 C 150.726037 123.512906 150.459532 123.515587 150.195 123.49 C 149.930563 123.46554 149.669052 123.415984 149.414 123.342 C 149.033944 123.226606 148.672299 123.057569 148.34 122.84 C 148.118407 122.696452 147.912892 122.529492 147.727 122.342 C 147.257153 121.879439 146.914463 121.303582 146.732 120.67 C 146.695966 120.544572 146.666262 120.417411 146.643 120.289 C 146.618341 120.160382 146.600648 120.030527 146.59 119.9 L 145.023 95.984 L 138.48 199.262 L 138.48 199.986 C 138.469531 200.33969 138.406508 200.689855 138.293 201.025 C 138.132435 201.526221 137.869554 201.988647 137.521 202.383 C 137.434659 202.482356 137.343552 202.577467 137.248 202.668 C 137.053968 202.846065 136.844098 203.006061 136.621 203.146 C 135.941275 203.572396 135.147541 203.781034 134.346 203.744 C 133.947837 203.730441 133.55403 203.656602 133.178 203.525 C 132.67627 203.353041 132.214389 203.081626 131.82 202.727 C 131.624055 202.550932 131.445561 202.356364 131.287 202.146 C 131.131637 201.935138 130.997011 201.709757 130.885 201.473 C 130.774181 201.235841 130.687091 200.988303 130.625 200.734 C 130.594075 200.607396 130.570039 200.479208 130.553 200.35 L 118.203 114.285 L 112.119 146.717 C 111.982318 147.348539 111.686646 147.93472 111.26 148.42 C 111.086512 148.618375 110.894288 148.799547 110.686 148.961 C 109.614749 149.788076 108.198711 150.019319 106.92 149.576 C 106.417466 149.406223 105.954502 149.136473 105.559 148.783 C 105.064385 148.347202 104.689788 147.791848 104.471 147.17 L 100.045 133.943 L 91.105 192.648 C 91.016439 193.138438 90.831543 193.606457 90.561 194.025 C 90.419783 194.247337 90.255907 194.454442 90.072 194.643 C 89.88882 194.832718 89.686776 195.003267 89.469 195.152 C 89.251237 195.302289 89.018698 195.429951 88.775 195.533 C 88.531336 195.637651 88.277712 195.71739 88.018 195.771 C 87.758798 195.827593 87.494307 195.856422 87.229 195.857 C 86.69636 195.863479 86.167757 195.763878 85.674 195.564 C 85.304411 195.418756 84.960149 195.215912 84.654 194.963 C 84.449888 194.796475 84.262349 194.610611 84.094 194.408 C 83.842187 194.104577 83.639094 193.763839 83.492 193.398 C 83.442245 193.277247 83.398524 193.154095 83.361 193.029 C 83.324886 192.903522 83.294851 192.776374 83.271 192.648 L 68.063 91.816 L 61.797 127.963 L 61.787 128.012 C 61.741336 128.269832 61.667908 128.521966 61.568 128.764 C 61.518999 128.885192 61.463588 129.003693 61.402 129.119 C 61.280409 129.351072 61.134597 129.569623 60.967 129.771 C 60.716102 130.077996 60.419665 130.344756 60.088 130.562 C 59.866436 130.706456 59.631728 130.829669 59.387 130.93 C 59.263991 130.97917 59.138869 131.022879 59.012 131.061 C 58.756398 131.134104 58.494638 131.183644 58.23 131.209 C 58.097675 131.22084 57.964849 131.22618 57.832 131.225 L 5.676 131.225 L 5.676 131.225 Z " id="Path" fill="rgb(255,255,255)"/></g><path d=" M 5.676 123.344 L 5.676 131.225 L 57.832 131.225 C 59.79 131.243 61.471 129.86 61.797 127.963 L 68.063 91.816 L 83.271 192.648 C 83.618 194.507 85.266 195.858 87.188 195.858 C 89.111 195.858 90.759 194.507 91.105 192.648 L 100.045 133.943 L 104.471 147.17 C 105.059 148.822 106.691 149.89 108.469 149.785 C 110.247 149.68 111.737 148.427 112.119 146.717 L 118.203 114.285 L 130.553 200.35 C 130.821 202.367 132.618 203.846 134.687 203.752 C 136.755 203.657 138.404 202.02 138.48 199.986 L 138.48 199.262 L 145.023 95.984 L 146.59 119.9 C 146.742 121.816 148.285 123.34 150.233 123.497 C 152.181 123.655 153.957 122.4 154.426 120.535 L 161.613 89.553 L 169.633 145.811 C 169.906 147.686 171.507 149.101 173.433 149.168 C 175.36 149.235 177.059 147.936 177.467 146.084 L 182.629 123.344 L 183.182 127.783 C 183.424 129.752 185.127 131.231 187.145 131.227 L 250.324 131.227 L 250.324 123.344 L 190.646 123.344 L 187.605 100.152 C 187.332 98.277 185.731 96.863 183.804 96.796 C 181.877 96.729 180.179 98.029 179.771 99.881 L 174.426 123.344 L 166.498 67.447 C 166.252 65.564 164.666 64.125 162.736 64.036 C 160.806 63.946 159.089 65.232 158.664 67.084 L 152.766 92.451 L 148.986 33.746 L 148.986 33.293 C 148.932674 32.223685 148.440648 31.223714 147.626 30.529 C 146.803035 29.826279 145.731925 29.484259 144.654 29.58 L 144.654 29.574 C 142.683 29.762 141.152 31.345 141.061 33.289 L 141.061 33.742 L 132.949 161.027 L 122.719 89.457 C 122.571 87.445 120.892 85.873 118.84 85.826 C 116.788 85.779 115.036 87.272 114.793 89.275 L 107.143 130.135 L 102.35 115.82 C 101.791 114.075 100.076 112.943 98.22 113.095 C 96.365 113.247 94.865 114.643 94.607 116.455 L 87.234 165.467 L 72.303 66.537 C 71.979 64.674 70.346 63.304 68.423 63.283 C 66.5 63.261 64.836 64.594 64.469 66.449 L 54.516 123.344 L 5.676 123.344 L 5.676 123.344 Z " id="Path" fill="rgb(255,218,100)"/><g opacity="0.4"><linearGradient id="_lgradient_550" x1="0.5166666666666668" y1="0" x2="0.5166666666666666" y2="1.0000000000000002" gradientTransform="matrix(244.65,0,0,228.34,5.68,11.95)" gradientUnits="userSpaceOnUse"><stop offset="0%" stop-opacity="1" style="stop-color:rgb(255,255,255)"/><stop offset="12.5%" stop-opacity="0.09803922" style="stop-color:rgb(255,255,255)"/><stop offset="92.500001%" stop-opacity="0.09803922" style="stop-color:rgb(0,0,0)"/><stop offset="100%" stop-opacity="0.49803922" style="stop-color:rgb(0,0,0)"/></linearGradient><path d=" M 165.06803 11.951234 C 169.395994 11.941409 173.723944 11.990533 178.051908 12.088781 C 181.927398 12.167379 185.802873 12.31475 189.678362 12.540721 C 193.1309 12.737216 196.583423 13.022134 200.026115 13.395476 C 203.085193 13.729518 206.144271 14.181458 209.173842 14.741469 C 211.888645 15.242533 214.57394 15.881143 217.219897 16.6573 C 219.619947 17.354858 221.970814 18.219439 224.242988 19.241215 C 226.357793 20.184394 228.384061 21.304417 230.302129 22.591462 C 232.141505 23.829383 233.862851 25.244151 235.436659 26.80629 C 237.000621 28.378252 238.417046 30.087764 239.656409 31.924995 C 240.944972 33.840824 242.066305 35.864728 243.020409 37.967229 C 244.043389 40.246576 244.908985 42.584873 245.617197 44.972292 C 246.394255 47.615155 247.033606 50.297317 247.535265 53.008956 C 248.095924 56.034984 248.548399 59.080665 248.882828 62.13617 C 249.256611 65.574836 249.541856 69.013506 249.738578 72.462003 C 249.964823 76.323139 250.112361 80.194101 250.200884 84.055237 C 250.289421 88.378131 250.338591 92.701032 250.32876 97.014106 L 250.32876 155.225886 C 250.338591 159.54878 250.289421 163.861854 250.200884 168.184747 C 250.112361 172.05571 249.964823 175.916853 249.738578 179.777981 C 249.541856 183.226485 249.256611 186.674975 248.882828 190.103826 C 248.548399 193.15933 248.095924 196.214835 247.535265 199.240851 C 247.033606 201.942664 246.394255 204.624837 245.617197 207.267703 C 244.908985 209.655115 244.043389 212.003235 243.020409 214.272755 C 242.066305 216.38509 240.944972 218.399156 239.656409 220.314999 C 238.417046 222.152226 237.000621 223.871561 235.436659 225.433697 C 233.862851 226.995832 232.141505 228.410601 230.302129 229.648532 C 228.384061 230.935575 226.357793 232.055598 224.242988 232.998768 C 221.970814 234.020552 219.619947 234.885137 217.219897 235.592507 C 214.57394 236.368672 211.888645 237.007276 209.173842 237.498515 C 206.144271 238.068354 203.085193 238.510465 200.026115 238.844519 C 196.583423 239.21785 193.1309 239.502777 189.678362 239.699269 C 185.802873 239.925235 181.927398 240.072615 178.051908 240.161035 C 173.723944 240.249454 169.395994 240.298581 165.06803 240.288762 L 90.941963 240.288762 C 86.614006 240.298581 82.286049 240.249454 77.9581 240.161035 C 74.08261 240.072615 70.20712 239.925235 66.331638 239.699269 C 62.879108 239.502777 59.426578 239.21785 55.983886 238.844519 C 52.924808 238.510465 49.865733 238.068354 46.836162 237.498515 C 44.121356 237.007276 41.436057 236.368672 38.7901 235.592507 C 36.390053 234.885137 34.039187 234.020552 31.767009 232.998768 C 29.652213 232.055598 27.625943 230.935575 25.707871 229.648532 C 23.868489 228.410601 22.147143 226.995832 20.573343 225.433697 C 19.009377 223.871561 17.592955 222.152226 16.353586 220.314999 C 15.065036 218.399156 13.943701 216.38509 12.989584 214.272755 C 11.966612 212.003235 11.101021 209.655115 10.392811 207.267703 C 9.615746 204.624837 8.976389 201.942664 8.47474 199.240851 C 7.914072 196.214835 7.461604 193.15933 7.127172 190.103826 C 6.753394 186.674975 6.468142 183.226485 6.271417 179.777981 C 6.045183 175.916853 5.897639 172.05571 5.809112 168.184747 C 5.720586 163.861854 5.671405 159.54878 5.681241 155.225886 L 5.681241 97.014106 C 5.671405 92.701032 5.720586 88.378131 5.809112 84.055237 C 5.897639 80.194101 6.045183 76.323139 6.271417 72.462003 C 6.468142 69.013506 6.753394 65.574836 7.127172 62.13617 C 7.461604 59.080665 7.914072 56.034984 8.47474 53.008956 C 8.976389 50.297317 9.615746 47.615155 10.392811 44.972292 C 11.101021 42.584873 11.966612 40.246576 12.989584 37.967229 C 13.943701 35.864728 15.065036 33.840824 16.353586 31.924995 C 17.592955 30.087764 19.009377 28.378252 20.573343 26.80629 C 22.147143 25.244151 23.868489 23.829383 25.707871 22.591462 C 27.625943 21.304417 29.652213 20.184394 31.767009 19.241215 C 34.039187 18.219439 36.390053 17.354858 38.7901 16.6573 C 41.436057 15.881143 44.121356 15.242533 46.836162 14.741469 C 49.865733 14.181458 52.924808 13.729518 55.983886 13.395476 C 59.426578 13.022134 62.879108 12.737216 66.331638 12.540721 C 70.20712 12.31475 74.08261 12.167379 77.9581 12.088781 C 82.286049 11.990533 86.614006 11.941409 90.941963 11.951234 L 165.06803 11.951234 Z  M 165.077876 15.959741 C 169.376317 15.949916 173.674759 15.99904 177.973216 16.087463 C 181.799522 16.175886 185.625827 16.323257 189.452133 16.539402 C 192.835809 16.735898 196.219486 17.010992 199.583486 17.384332 C 202.554026 17.698726 205.514751 18.131016 208.445953 18.681203 C 211.023049 19.152792 213.580483 19.761928 216.098564 20.498786 C 218.321569 21.147221 220.495374 21.952852 222.600334 22.896029 C 224.508571 23.750785 226.338116 24.762737 228.069293 25.922059 C 229.692286 27.012609 231.207063 28.260355 232.59398 29.645648 C 233.980897 31.030941 235.230091 32.543956 236.331763 34.165043 C 237.492434 35.894202 238.505568 37.711787 239.361333 39.607968 C 240.305606 41.720292 241.112187 43.891565 241.761369 46.102139 C 242.508934 48.617282 243.108947 51.161898 243.590914 53.735987 C 244.131912 56.663768 244.564709 59.6112 244.889308 62.578282 C 245.263091 65.938355 245.538505 69.308252 245.735227 72.687976 C 245.951626 76.509812 246.10901 80.321821 246.187687 84.143656 C 246.276225 88.437084 246.325394 92.720685 246.325394 97.014106 C 246.325394 97.014106 246.325394 97.014106 246.325394 97.014106 L 246.325394 155.225886 C 246.325394 155.225886 246.325394 155.225886 246.325394 155.225886 C 246.325394 159.519306 246.276225 163.802907 246.187687 168.096328 C 246.10901 171.918164 245.951626 175.739999 245.735227 179.552015 C 245.538505 182.931739 245.263091 186.301629 244.889308 189.671533 C 244.564709 192.628784 244.131912 195.576216 243.590914 198.503994 C 243.108947 201.078094 242.508934 203.622706 241.761369 206.137845 C 241.112187 208.358253 240.305606 210.5197 239.361333 212.63202 C 238.505568 214.528209 237.492434 216.355617 236.331763 218.074952 C 235.230091 219.705853 233.980897 221.218876 232.59398 222.604172 C 231.207063 223.979634 229.692286 225.227385 228.069293 226.317935 C 226.338116 227.477251 224.508571 228.489201 222.600334 229.343951 C 220.495374 230.296956 218.321569 231.092775 216.098564 231.741198 C 213.580483 232.478056 211.023049 233.087202 208.445953 233.558787 C 205.514751 234.108972 202.554026 234.541264 199.583486 234.865483 C 196.219486 235.228995 192.835809 235.513922 189.452133 235.70058 C 185.625827 235.916726 181.799522 236.073926 177.973216 236.152526 C 173.674759 236.25078 169.376317 236.290072 165.077876 236.290072 C 165.077876 236.290072 165.077876 236.290072 165.06803 236.290072 L 90.941963 236.290072 C 90.932125 236.290072 90.932125 236.290072 90.932125 236.290072 C 86.633683 236.290072 82.335234 236.25078 78.036784 236.152526 C 74.210479 236.073926 70.384173 235.916726 66.557868 235.70058 C 63.174195 235.513922 59.790522 235.228995 56.426518 234.865483 C 53.455967 234.541264 50.495253 234.108972 47.564048 233.558787 C 44.986944 233.087202 42.429517 232.478056 39.911433 231.741198 C 37.688439 231.092775 35.514626 230.296956 33.409665 229.343951 C 31.501429 228.489201 29.671886 227.477251 27.940703 226.317935 C 26.31772 225.227385 24.802935 223.979634 23.416022 222.604172 C 22.029109 221.218876 20.779904 219.705853 19.678243 218.074952 C 18.517564 216.355617 17.504428 214.528209 16.648674 212.63202 C 15.704392 210.5197 14.897819 208.358253 14.248626 206.137845 C 13.50107 203.622706 12.901057 201.078094 12.419081 198.503994 C 11.878086 195.576216 11.445291 192.628784 11.120694 189.671533 C 10.746916 186.301629 10.471501 182.931739 10.274776 179.552015 C 10.058378 175.739999 9.900997 171.918164 9.822307 168.096328 C 9.733781 163.802907 9.6846 159.519306 9.6846 155.225886 C 9.6846 155.225886 9.6846 155.225886 9.6846 155.225886 L 9.6846 97.014106 C 9.6846 97.014106 9.6846 97.014106 9.6846 97.014106 C 9.6846 92.720685 9.733781 88.437084 9.822307 84.143656 C 9.900997 80.321821 10.058378 76.509812 10.274776 72.687976 C 10.471501 69.308252 10.746916 65.938355 11.120694 62.578282 C 11.445291 59.6112 11.878086 56.663768 12.419081 53.735987 C 12.901057 51.161898 13.50107 48.617282 14.248626 46.102139 C 14.897819 43.891565 15.704392 41.720292 16.648674 39.607968 C 17.504428 37.711787 18.517564 35.894202 19.678243 34.165043 C 20.779904 32.543956 22.029109 31.030941 23.416022 29.645648 C 24.802935 28.260355 26.31772 27.012609 27.940703 25.922059 C 29.671886 24.762737 31.501429 23.750785 33.409665 22.896029 C 35.514626 21.952852 37.688439 21.147221 39.911433 20.498786 C 42.429517 19.761928 44.986944 19.152792 47.564048 18.681203 C 50.495253 18.131016 53.455967 17.698726 56.426518 17.384332 C 59.790522 17.010992 63.174195 16.735898 66.557868 16.539402 C 70.384173 16.323257 74.210479 16.175886 78.036784 16.087463 C 82.335234 15.99904 86.633683 15.949916 90.932125 15.959741 C 90.932125 15.959741 90.932125 15.959741 90.941963 15.959741 L 165.06803 15.959741 C 165.077876 15.959741 165.077876 15.959741 165.077876 15.959741 Z " fill-rule="evenodd" id="highlight" fill="url(#_lgradient_550)"/></g></svg>

<svg xmlns="http://www.w3.org/2000/svg" style="isolation:isolate" width="256" height="256"><defs><filter id="a" width="270.648" height="254.338" x="-7.32" y="2.95" filterUnits="userSpaceOnUse"><feGaussianBlur xmlns="http://www.w3.org/2000/svg" in="SourceGraphic" stdDeviation="4.294"/><feOffset xmlns="http://www.w3.org/2000/svg" dy="4" result="pf_100_offsetBlur"/><feFlood xmlns="http://www.w3.org/2000/svg" flood-opacity=".4"/><feComposite xmlns="http://www.w3.org/2000/svg" in2="pf_100_offsetBlur" operator="in" result="pf_100_dropShadow"/><feBlend xmlns="http://www.w3.org/2000/svg" in="SourceGraphic" in2="pf_100_dropShadow"/></filter></defs><path fill="#4D4D4D" d="M165.689 11.95c74.056 0 84.639 10.557 84.639 84.544v59.251c0 73.986-10.583 84.543-84.639 84.543h-75.37c-74.055 0-84.639-10.557-84.639-84.543V96.494c0-73.987 10.584-84.544 84.639-84.544h75.37z" filter="url(#a)"/><path fill="#FFF" d="M5.676 131.225v24.668c0 9.248.165 17.505.599 24.875.217 3.684.501 7.146.866 10.4.364 3.254.808 6.298 1.345 9.146.538 2.849 1.168 5.502 1.905 7.971.736 2.469 1.578 4.756 2.539 6.871a39.461 39.461 0 0 0 3.252 5.848 33.253 33.253 0 0 0 4.043 4.904 33.279 33.279 0 0 0 4.91 4.037 39.528 39.528 0 0 0 5.855 3.248c2.118.96 4.407 1.8 6.879 2.535 2.472.736 5.127 1.366 7.979 1.903 2.851.536 5.899.98 9.156 1.344 3.257.363 6.724.646 10.412.863 7.377.433 15.641.598 24.898.598h75.372c9.257 0 17.521-.165 24.898-.598 3.688-.217 7.155-.5 10.412-.863 3.257-.364 6.305-.808 9.156-1.344 2.852-.537 5.507-1.167 7.979-1.903 2.472-.735 4.761-1.575 6.879-2.535a39.528 39.528 0 0 0 5.855-3.248 33.279 33.279 0 0 0 4.91-4.037 33.253 33.253 0 0 0 4.043-4.904 39.461 39.461 0 0 0 3.252-5.848c.961-2.115 1.803-4.402 2.539-6.871.737-2.469 1.367-5.122 1.905-7.971.537-2.848.981-5.892 1.345-9.146.365-3.254.649-6.716.866-10.4.434-7.37.599-15.627.599-24.875v-24.666h-63.179a4.814 4.814 0 0 1-.606-.045 4.04 4.04 0 0 1-.769-.194 3.798 3.798 0 0 1-.717-.34 3.828 3.828 0 0 1-.633-.472 3.686 3.686 0 0 1-.277-.282 3.81 3.81 0 0 1-.643-.984 4.036 4.036 0 0 1-.145-.363 4.172 4.172 0 0 1-.173-.764l-.553-4.439-5.162 22.74a3.675 3.675 0 0 1-.225.695 3.61 3.61 0 0 1-.381.686 3.801 3.801 0 0 1-.511.599 4.065 4.065 0 0 1-.967.68 4.038 4.038 0 0 1-4.459-.566 3.8 3.8 0 0 1-.949-1.246 3.686 3.686 0 0 1-.151-.362 3.773 3.773 0 0 1-.191-.759l-8.02-56.258-7.187 30.982a3.463 3.463 0 0 1-.143.445 3.946 3.946 0 0 1-2.9 2.442c-.13.026-.261.047-.393.06a3.74 3.74 0 0 1-.795.008 4.188 4.188 0 0 1-.781-.148 4.175 4.175 0 0 1-1.074-.502 3.683 3.683 0 0 1-.613-.498 3.836 3.836 0 0 1-.995-1.672 3.893 3.893 0 0 1-.089-.381 3.636 3.636 0 0 1-.053-.389l-1.567-23.916-6.543 103.278v.724a3.568 3.568 0 0 1-.187 1.039 3.802 3.802 0 0 1-.772 1.358 4.073 4.073 0 0 1-.273.285 4.331 4.331 0 0 1-.627.478 3.939 3.939 0 0 1-2.275.598 3.942 3.942 0 0 1-1.168-.219 3.943 3.943 0 0 1-1.358-.798 4.094 4.094 0 0 1-.533-.581 4.066 4.066 0 0 1-.402-.673 3.97 3.97 0 0 1-.26-.739 3.604 3.604 0 0 1-.072-.384l-12.35-86.065-6.084 32.432a3.795 3.795 0 0 1-.859 1.703 4.097 4.097 0 0 1-.574.541 4.012 4.012 0 0 1-3.766.615 3.93 3.93 0 0 1-1.361-.793 3.855 3.855 0 0 1-1.088-1.613l-4.426-13.227-8.94 58.705a3.771 3.771 0 0 1-.544 1.377 3.813 3.813 0 0 1-.489.618 3.88 3.88 0 0 1-.603.509 3.887 3.887 0 0 1-.694.381 3.933 3.933 0 0 1-.757.238 3.737 3.737 0 0 1-.789.086 4.014 4.014 0 0 1-1.555-.293 3.762 3.762 0 0 1-1.02-.601 4.088 4.088 0 0 1-.56-.555 3.803 3.803 0 0 1-.602-1.01 3.94 3.94 0 0 1-.131-.369 4.057 4.057 0 0 1-.09-.381L68.063 91.816l-6.266 36.147-.01.049a3.63 3.63 0 0 1-.219.752 3.687 3.687 0 0 1-.166.355 3.713 3.713 0 0 1-.435.652 3.883 3.883 0 0 1-.879.791 4.202 4.202 0 0 1-.701.368 4.496 4.496 0 0 1-.375.131 4.354 4.354 0 0 1-.782.148 4.061 4.061 0 0 1-.398.016H5.676z" opacity=".2"/><path fill="#FFDA64" d="M5.676 123.344v7.881h52.156c1.958.018 3.639-1.365 3.965-3.262l6.266-36.147 15.208 100.832c.347 1.859 1.995 3.21 3.917 3.21 1.923 0 3.571-1.351 3.917-3.21l8.94-58.705 4.426 13.227c.588 1.652 2.22 2.72 3.998 2.615 1.778-.105 3.268-1.358 3.65-3.068l6.084-32.432 12.35 86.065c.268 2.017 2.065 3.496 4.134 3.402 2.068-.095 3.717-1.732 3.793-3.766v-.724l6.543-103.278 1.567 23.916c.152 1.916 1.695 3.44 3.643 3.597 1.948.158 3.724-1.097 4.193-2.962l7.187-30.982 8.02 56.258c.273 1.875 1.874 3.29 3.8 3.357 1.927.067 3.626-1.232 4.034-3.084l5.162-22.74.553 4.439c.242 1.969 1.945 3.448 3.963 3.444h63.179v-7.883h-59.678l-3.041-23.192c-.273-1.875-1.874-3.289-3.801-3.356-1.927-.067-3.625 1.233-4.033 3.085l-5.345 23.463-7.928-55.897c-.246-1.883-1.832-3.322-3.762-3.411-1.93-.09-3.647 1.196-4.072 3.048l-5.898 25.367-3.78-58.705v-.453a3.887 3.887 0 0 0-1.36-2.764 4.028 4.028 0 0 0-2.972-.949v-.006c-1.971.188-3.502 1.771-3.593 3.715v.453l-8.112 127.285-10.23-71.57c-.148-2.012-1.827-3.584-3.879-3.631-2.052-.047-3.804 1.446-4.047 3.449l-7.65 40.86-4.793-14.315c-.559-1.745-2.274-2.877-4.13-2.725-1.855.152-3.355 1.548-3.613 3.36l-7.373 49.012-14.931-98.93c-.324-1.863-1.957-3.233-3.88-3.254-1.923-.022-3.587 1.311-3.954 3.166l-9.953 56.895H5.676z"/><g opacity=".4"><linearGradient id="b" x1=".517" x2=".517" y2="1"><stop offset="0%" stop-color="#fff"/><stop offset="12.5%" stop-opacity=".098" stop-color="#fff"/><stop offset="92.5%" stop-opacity=".098"/><stop offset="100%" stop-opacity=".498"/></linearGradient><path fill="none" stroke="url(#b)" stroke-linecap="round" stroke-linejoin="round" stroke-width="4.077" d="M165.685 11.947c74.055 0 84.639 10.557 84.639 84.544v59.251c0 73.986-10.584 84.543-84.639 84.543h-75.37c-74.055 0-84.639-10.557-84.639-84.543V96.491c0-73.987 10.584-84.544 84.639-84.544h75.37z" vector-effect="non-scaling-stroke"/></g></svg>
